X:5029500
T:Mungal\aaten
S:Eric och Kalle Sahlstr\"om, $2Vi e ju Uplenningar ve,$0 Valbo 1974. Jougo
S:Music, JGOCD02, CD, 2004.
H:Transcribed from the playing of Eric and Kalle Sahlstr\"om. To the extent
H:the tune is accompanied it's through harmony, so I don't include chords.
H:This is a tune from Munga in Uppland. According to the Swedish Wikipedia
H:it was played by C. G. Englund, a nyckelharpa player from Munga at a fiddling
H:competition in 1910, and immediately became very popular. The recording
H:this is transcribed from is a concert recording, and the audience starts
H:singing in the background part way through.
N:From NH Country Dance (URL below), along with many New England, Canadian & Swedish
N:tunes, and resources for abc notation and New England traditional music and dance.
%
N: Note #1: To preserve formatting (font, spacing, etc.), use the
N: file header at the URL below; just follow accompanying instructions.
%
N: Note #2: This abc code is optimized for use with abcm2ps, which is used by
N: EasyABC and other abc apps. To abc2svg for display or printing look to see if there
N: is a file optimized for abc2svg. If not you may need to adjust the spacing in places.
%
Z:abc-transcription Peter Yarensky. I rely heavily on careful listening to the
Z:named sources aided by software to hear details. While not perfect, known
Z:substantial differences from other written sources receive careful attention.
Z:abc-copyright Peter Yarensky. You may reproduce this tune freely but
Z:please include the entire abc file including all the notes.
%%writefields HQSD
U:s = !slide!
U:t = !trill!
F:Tunes Home Page - https://fiddle-tunes.nhcountrydance.com/
F:abc Header & its Usage - https://fiddle-tunes.nhcountrydance.com/header-page/
M:4/4
L:1/8
R:Scandinavian March
G:Scandinavian Tunes ~ GanglÃ¥ts, Marches & Polkas
N: Tune Tags ~ GanglÃ¥t, Scandinavian
K:C
%%textfont Palatino-Italic 14
%%text As played by Eric & Kalle SahlstrÃ¶m
%%textfont Palatino-Roman 16
%%
|: G2 |\
c4 c>dcB | c2G2 B2c2 | d4 d^cde | d2G2 c2d2 |\
e4 e2de | f2((3efe) d2c2 | d2>c2 B2A2 | G2F2 E2G2 |
c4 c>dcB | c2G2 B2c2 | d4 d^cde | d2G2 c2d2 |\
e2^de f2ef | g2^fg a2=f2 | e<gBc d<fd<B | c6 :|
|: e2 |\
g4 g>(ag2) | g2f2 e2d2 | f4 f2>g2 | f2e2 d2c2 |\
e4 e2de | f2e2 d2c2 | d2>c2 B2A2 | G2F2 E2G2 |
g4 g^fga | g2f2 e2d2 | f4 f2>g2 | f2e2 d2c2 |\
e2^de f2ef | g2^fg a2=f2 | e<gBc d<fd<B | c6 :|

